icons/cave-11.svg

<?xml version="1.0" encoding="UTF-8" standalone="no"?>
<!-- Generator: Adobe Illustrator 19.2.1, SVG Export Plug-In . SVG Version: 6.00 Build 0)  -->

<svg
   xmlns:dc="http://purl.org/dc/elements/1.1/"
   xmlns:cc="http://creativecommons.org/ns#"
   xmlns:rdf="http://www.w3.org/1999/02/22-rdf-syntax-ns#"
   xmlns:svg="http://www.w3.org/2000/svg"
   xmlns="http://www.w3.org/2000/svg"
   xmlns:sodipodi="http://sodipodi.sourceforge.net/DTD/sodipodi-0.dtd"
   xmlns:inkscape="http://www.inkscape.org/namespaces/inkscape"
   version="1.1"
   id="Layer_1"
   x="0px"
   y="0px"
   width="11"
   height="11"
   viewBox="0 0 11 11"
   xml:space="preserve"
   inkscape:version="0.91 r13725"
   sodipodi:docname="cave-11.svg"><metadata
     id="metadata9"><rdf:RDF><cc:Work
         rdf:about=""><dc:format>image/svg+xml</dc:format><dc:type
           rdf:resource="http://purl.org/dc/dcmitype/StillImage" /><dc:title></dc:title></cc:Work></rdf:RDF></metadata><defs
     id="defs7" /><sodipodi:namedview
     pagecolor="#ffffff"
     bordercolor="#666666"
     borderopacity="1"
     objecttolerance="10"
     gridtolerance="10"
     guidetolerance="10"
     inkscape:pageopacity="0"
     inkscape:pageshadow="2"
     inkscape:window-width="1280"
     inkscape:window-height="666"
     id="namedview5"
     showgrid="true"
     inkscape:zoom="22.627417"
     inkscape:cx="7.2877244"
     inkscape:cy="7.7147056"
     inkscape:window-x="-8"
     inkscape:window-y="-8"
     inkscape:window-maximized="1"
     inkscape:current-layer="Layer_1"
     inkscape:snap-bbox="true"
     inkscape:snap-smooth-nodes="true"
     inkscape:bbox-paths="true"
     inkscape:bbox-nodes="true"
     inkscape:snap-bbox-edge-midpoints="true"
     inkscape:snap-bbox-midpoints="true"
     inkscape:object-paths="true"
     inkscape:snap-intersection-paths="true"
     inkscape:object-nodes="true"
     inkscape:snap-midpoints="true"
     inkscape:snap-global="true"><inkscape:grid
       type="xygrid"
       id="grid4137"
       empspacing="1" /></sodipodi:namedview><path
     style="color:#000000;font-style:normal;font-variant:normal;font-weight:normal;font-stretch:normal;font-size:medium;line-height:normal;font-family:sans-serif;text-indent:0;text-align:start;text-decoration:none;text-decoration-line:none;text-decoration-style:solid;text-decoration-color:#000000;letter-spacing:normal;word-spacing:normal;text-transform:none;direction:ltr;block-progression:tb;writing-mode:lr-tb;baseline-shift:baseline;text-anchor:start;white-space:normal;clip-rule:nonzero;display:inline;overflow:visible;visibility:visible;opacity:1;isolation:auto;mix-blend-mode:normal;color-interpolation:sRGB;color-interpolation-filters:linearRGB;solid-color:#000000;solid-opacity:1;fill:#000000;fill-opacity:1;fill-rule:evenodd;stroke:none;stroke-width:1px;stroke-linecap:round;stroke-linejoin:round;stroke-miterlimit:4;stroke-dasharray:none;stroke-dashoffset:0;stroke-opacity:1;color-rendering:auto;image-rendering:auto;shape-rendering:auto;text-rendering:auto;enable-background:accumulate"
     d="m 4.49995,1.9928788 c -0.1325995,2.55e-5 -0.2597597,0.052716 -0.3535156,0.1464844 l -1,1 C 3.0526663,3.2331191 2.9999755,3.3602793 2.99995,3.4928788 l 0,0.7929688 -1.8535156,1.8535156 C 1.0526663,6.2331191 0.99997554,6.3602793 0.99995,6.4928788 l 0,2 c -0.009563,0.6761613 1.0095626,0.6761613 1,0 l 0,-1.7929688 1.8535156,-1.8535156 C 3.9472337,4.7526385 3.9999245,4.6254783 3.99995,4.4928788 l 0,-0.7929688 L 4.7069812,2.9928788 5.7929688,3 6.6464844,3.8535156 C 6.7402403,3.9472837 6.8674005,3.9999745 7,4 L 7.99995,3.99288 8,5.1171887 c 1.328e-4,0.077297 0.018183,0.1535108 0.052734,0.2226562 L 9,7.2343762 8.99995,8.49288 c -0.00956,0.6761613 1.009563,0.6761613 1,0 L 10,7.1171887 C 9.9998671,7.0398905 9.9818164,6.9636767 9.9472656,6.8945313 L 9,5 8.99995,3.4928788 c -2.76e-5,-0.2761309 -0.2238691,-0.4999724 -0.5,-0.5 L 7.2070312,3 6.3535156,2.1464844 C 6.2597597,2.0527163 6.1325995,2.0000255 6,2 Z"
     id="path8218"
     inkscape:connector-curvature="0"
     sodipodi:nodetypes="cccccccccccccccccccccccccccccccc" /><path
     style="opacity:1;fill:#000000;fill-opacity:1;stroke:none;stroke-width:1;stroke-linecap:round;stroke-linejoin:round;stroke-miterlimit:4;stroke-dasharray:none;stroke-dashoffset:0;stroke-opacity:1"
     id="path8222"
     sodipodi:type="arc"
     sodipodi:cx="5.5"
     sodipodi:cy="-9"
     sodipodi:rx="2.5"
     sodipodi:ry="3"
     sodipodi:start="0"
     sodipodi:end="3.1415927"
     d="m 8,-9 a 2.5,3 0 0 1 -1.25,2.5980762 2.5,3 0 0 1 -2.5000001,0 A 2.5,3 0 0 1 3,-9.0000001 L 5.5,-9 Z"
     transform="scale(1,-1)" /></svg>

<?xml version="1.0" encoding="UTF-8" standalone="no"?>
<svg
   xmlns:dc="http://purl.org/dc/elements/1.1/"
   xmlns:cc="http://creativecommons.org/ns#"
   xmlns:rdf="http://www.w3.org/1999/02/22-rdf-syntax-ns#"
   xmlns:svg="http://www.w3.org/2000/svg"
   xmlns="http://www.w3.org/2000/svg"
   xml:space="preserve"
   viewBox="0 0 11 11"
   height="11"
   width="11"
   y="0px"
   x="0px"
   id="Layer_1"
   version="1.1"><metadata
     id="metadata9"><rdf:RDF><cc:Work
         rdf:about=""><dc:format>image/svg+xml</dc:format><dc:type
           rdf:resource="http://purl.org/dc/dcmitype/StillImage" /><dc:title></dc:title></cc:Work></rdf:RDF></metadata><defs
     id="defs7" /><path
     id="path8218"
     d="M 4.5 1.9921875 C 4.3674005 1.992213 4.2402403 2.0449035 4.1464844 2.1386719 L 3.1464844 3.1386719 C 3.0527163 3.2324278 3.0000255 3.359588 3 3.4921875 L 3 4.2851562 L 1.1464844 6.1386719 C 1.0527163 6.2324278 1.0000255 6.359588 1 6.4921875 L 1 8.4921875 C 0.990437 9.1683488 2.0095626 9.1683488 2 8.4921875 L 2 6.6992188 L 3.8535156 4.8457031 C 3.9472837 4.7519472 3.9999745 4.624787 4 4.4921875 L 4 3.6992188 L 4.7070312 2.9921875 L 5.7929688 3 L 6.6464844 3.8535156 C 6.7402403 3.9472837 6.8674005 3.9999745 7 4 L 8 3.9921875 L 8 5.1171875 C 8.0001328 5.1944845 8.0181834 5.2706983 8.0527344 5.3398438 L 9 7.234375 L 9 8.4921875 C 8.99044 9.1683488 10.009563 9.1683488 10 8.4921875 L 10 7.1171875 C 9.9998671 7.0398893 9.9818164 6.9636767 9.9472656 6.8945312 L 9 5 L 9 3.4921875 C 8.9999724 3.2160566 8.7761309 2.9922151 8.5 2.9921875 L 7.2070312 3 L 6.3535156 2.1464844 C 6.2597597 2.0527163 6.1325995 2.0000255 6 2 L 4.5 1.9921875 z M 5.5585938 6 A 2.5 3 0 0 0 4.25 6.4023438 A 2.5 3 0 0 0 3 9 L 5.5 9 L 8 9 A 2.5 3 0 0 0 6.75 6.4023438 A 2.5 3 0 0 0 5.5585938 6 z "
     style="color:#000000;font-style:normal;font-variant:normal;font-weight:normal;font-stretch:normal;font-size:medium;line-height:normal;font-family:sans-serif;text-indent:0;text-align:start;text-decoration:none;text-decoration-line:none;text-decoration-style:solid;text-decoration-color:#000000;letter-spacing:normal;word-spacing:normal;text-transform:none;direction:ltr;block-progression:tb;writing-mode:lr-tb;baseline-shift:baseline;text-anchor:start;white-space:normal;clip-rule:nonzero;display:inline;overflow:visible;visibility:visible;opacity:1;isolation:auto;mix-blend-mode:normal;color-interpolation:sRGB;color-interpolation-filters:linearRGB;solid-color:#000000;solid-opacity:1;fill:#000000;fill-opacity:1;fill-rule:evenodd;stroke:none;stroke-width:1px;stroke-linecap:round;stroke-linejoin:round;stroke-miterlimit:4;stroke-dasharray:none;stroke-dashoffset:0;stroke-opacity:1;color-rendering:auto;image-rendering:auto;shape-rendering:auto;text-rendering:auto;enable-background:accumulate" /></svg>
